X:1
T:Title
L:1/8
Q:1/4=130
M:4/4
K:Bb
V:1 treble nm="Church Organ, Staff"
V:1
 F2 B2 F2 B2 | c2 d2 d2 c2 | A2 B2 G2 F2 | A2 B6 | F2 B2 F2 B2 | c2 d2 d2 c2 | A2 B2 G2 F2 | %7
w: By~R.R.~Chope~~Old~English~Tune * * *|||||||
 A2 B6 | B2 c2- c/ z/ d e2 | d2 c6 | G2 c2- c/ z/ B A2 | G2 F6 | f2 d2 B2 c2 | A2 B2 G2 F2 | %14
w: |||||||
 B2 G2 E2 D2 | F2 B6 |] %16
w: ||

